packages/icons/src/gift.svg

<svg width="24" height="24" viewBox="0 0 24 24" fill="none" xmlns="http://www.w3.org/2000/svg">
<path fill-rule="evenodd" clip-rule="evenodd" d="M19.9103 3.81461C20.4 4.76344 20.3204 5.98274 19.9065 7.00058L20 6.99999C21.0544 6.99999 21.9182 7.81587 21.9945 8.85073L22 8.99999V11C22 12.0544 21.1841 12.9182 20.1493 12.9945L20 13V19C20 20.0544 19.1841 20.9182 18.1493 20.9945L18 21H5.99492C4.94056 21 4.07676 20.1841 4.00041 19.1493L3.99492 19V13C2.94541 13 2.08182 12.1841 2.00549 11.1493L2 11V8.99999C2 7.94563 2.81588 7.08183 3.85074 7.00548L4 6.99999L4.35973 7.00058C3.94589 5.98274 3.86625 4.76344 4.35593 3.81461C5.27247 2.03869 7.01503 1.66595 8.67237 2.22744L8.85612 2.29364L8.91413 2.31791C10.324 2.96055 11.3991 4.00155 12.1337 5.41138C12.8672 4.00155 13.9423 2.96055 15.3521 2.31791L15.4101 2.29364C17.121 1.64026 18.9598 1.97291 19.9103 3.81461ZM18 13L12.999 12.9998L12.9975 17.0006L10.9975 16.9994L10.999 12.9998L5.99492 13V19H18V13ZM11.001 8.99981L4 8.99999V11L11 10.9998L11.001 8.99981ZM20 8.99999L13.001 8.99981L13 10.9998L20 11V8.99999ZM16.2755 4.1084L16.1492 4.15299L15.9704 4.24009C14.932 4.77366 14.1639 5.63688 13.6593 6.86579L13.6072 6.99999H17.6342L17.5657 6.99508C17.5549 6.99121 17.5552 6.98451 17.5639 6.97318L17.6124 6.92351C17.7602 6.77818 17.9137 6.55467 18.0335 6.29759C18.3026 5.72033 18.341 5.13475 18.133 4.73184C17.7608 4.01048 17.0783 3.84855 16.2755 4.1084ZM7.99071 4.1084C7.18794 3.84855 6.50549 4.01048 6.1332 4.73184C5.92527 5.13475 5.96364 5.72033 6.23271 6.29759C6.32857 6.50325 6.44597 6.68743 6.56476 6.82728L6.70233 6.97318L6.70874 6.98693L6.70051 6.99508L6.63201 6.99999H10.659L10.607 6.86579C10.1384 5.72466 9.44265 4.89884 8.51425 4.35949L8.29587 4.24009L8.117 4.15299L7.99071 4.1084Z" fill="black"/>
</svg>

<svg xmlns="http://www.w3.org/2000/svg" width="24" height="24" fill="none" viewBox="0 0 24 24">
  <path fill="#000" fill-rule="evenodd" d="M19.91 3.815c.49.948.41 2.168-.003 3.186L20 7a2 2 0 0 1 1.994 1.85L22 9v2a2 2 0 0 1-1.85 1.995L20 13v6a2 2 0 0 1-1.85 1.994L18 21H5.995A2 2 0 0 1 4 19.15L3.995 19v-6a1.999 1.999 0 0 1-1.99-1.85L2 11V9a2 2 0 0 1 1.85-1.995L4 7h.36c-.414-1.017-.494-2.237-.004-3.185.916-1.776 2.659-2.149 4.316-1.588l.184.067.058.024c1.41.643 2.485 1.684 3.22 3.093.733-1.41 1.808-2.45 3.218-3.093l.058-.024c1.711-.654 3.55-.321 4.5 1.52ZM18 13h-5.001l-.002 4h-2L11 13H5.995v6H18v-6Zm-6.999-4H4v2h7l.001-2ZM20 9h-6.999L13 11h7V9Zm-3.724-4.892-.127.045-.179.087c-1.038.534-1.806 1.397-2.31 2.626L13.606 7h4.027l-.068-.005c-.011-.004-.01-.01-.002-.022l.048-.05a2.22 2.22 0 0 0 .422-.625c.269-.578.307-1.163.099-1.566-.372-.722-1.055-.883-1.857-.624Zm-8.285 0c-.803-.26-1.486-.098-1.858.624-.208.403-.17.988.1 1.566a2.4 2.4 0 0 0 .332.53l.137.145.007.014-.008.008L6.632 7h4.027l-.052-.134c-.469-1.141-1.164-1.967-2.093-2.507l-.218-.119-.179-.087-.126-.045Z" clip-rule="evenodd"/>
</svg>
